X: 479
T: A Whack At The Whigs
R: slip jig
M: 9/8
K: Adorian
|:e|dBA AEA A2 e|dBA GBd gfe|dBA AE/G/A A2 B|GB/c/d gfe d2:|
|:G|A2 a ab^g a2 A|A2 a a2 b c’ba|1 e2 f gaf g2 e|dBd gfe d2:|
[2 c’2 a ba^g a2 e|edB GB/c/d gd||
|:B|c2 A BG/A/B A2 E|c2 B Ace d2 B|1 cA/B/c BA^G A2 E|DG/A/B gfe d2:|
[2 g2 e fd/e/f e2 E|GBd gfe d2||

